usr/share/icons/biglinux-icons-material-dark/symbolic/status/appointment-soon-symbolic.svg

<svg width="16" height="16" version="1.1" xmlns="http://www.w3.org/2000/svg">
 <path d="m10.465 4.002a0.5 0.5 0 0 0-0.072 8e-3v8e-3a0.5 0.5 0 0 0-0.25 0.156l-2.656 2.648-1.657-1.648c-0.314-0.514-1.2 0.373-0.687 0.687l2 2a0.5 0.5 0 0 0 0.687 0l3-3a0.5 0.5 0 0 0-0.365-0.859z" color="#000000" fill="#dedede" style="font-feature-settings:normal;font-variant-alternates:normal;font-variant-caps:normal;font-variant-ligatures:normal;font-variant-numeric:normal;font-variant-position:normal;isolation:auto;mix-blend-mode:normal;shape-padding:0;text-decoration-color:#000000;text-decoration-line:none;text-decoration-style:solid;text-indent:0;text-orientation:mixed;text-transform:none;white-space:normal"/>
 <path class="warning" d="m12.48 9.729a0.44 0.44 0 0 0-0.36 0.22l-3.061 5.397a0.437 0.437 0 0 0 0.379 0.654h6.125a0.437 0.437 0 0 0 0.379-0.654l-3.06-5.397a0.439 0.439 0 0 0-0.401-0.22zm-0.48 1.271h1v2h-1zm0 3h1v1h-1z" color="#000000" fill="#f9c440" fill-rule="evenodd" font-weight="400" overflow="visible" style="isolation:auto;mix-blend-mode:normal;text-decoration-color:#000000;text-decoration-line:none;text-decoration-style:solid;text-indent:0;text-transform:none;white-space:normal"/>
 <path d="m7.463 2.2817e-5a7.5 7.5 0 0 0-7.463 7.5 7.5 7.5 0 0 0 7.5 7.5 7.5 7.5 0 0 0 0.5-0.018v-1.002a6.5 6.5 0 0 1-0.5 0.02 6.5 6.5 0 0 1-6.5-6.5 6.5 6.5 0 0 1 6.5-6.5 6.5 6.5 0 0 1 6.5 6.5 6.5 6.5 0 0 1-0.176 1.5h1.024a7.5 7.5 0 0 0 0.152-1.5 7.5 7.5 0 0 0-7.5-7.5 7.5 7.5 0 0 0-0.037 0z" fill="#dedede"/>
</svg>

<svg xmlns="http://www.w3.org/2000/svg" width="16" height="16">
<path fill="#363636" d="m10.465 4.002-.072.008v.008a.5.5 0 0 0-.25.156L7.487 6.822 5.83 5.174c-.314-.514-1.2.373-.687.687l2 2a.5.5 0 0 0 .687 0l3-3a.5.5 0 0 0-.365-.859" color="#000" style="font-feature-settings:normal;font-variant-alternates:normal;font-variant-caps:normal;font-variant-ligatures:normal;font-variant-numeric:normal;font-variant-position:normal;isolation:auto;mix-blend-mode:normal;shape-padding:0;text-decoration-color:#000;text-decoration-line:none;text-decoration-style:solid;text-indent:0;text-orientation:mixed;text-transform:none;white-space:normal"/>
<path fill="#f9c440" fill-rule="evenodd" d="M12.48 9.729a.44.44 0 0 0-.36.22l-3.061 5.397a.437.437 0 0 0 .379.654h6.125a.437.437 0 0 0 .379-.654l-3.06-5.397a.44.44 0 0 0-.401-.22zM12 11h1v2h-1zm0 3h1v1h-1z" class="warning" color="#000" font-weight="400" overflow="visible" style="isolation:auto;mix-blend-mode:normal;text-decoration-color:#000;text-decoration-line:none;text-decoration-style:solid;text-indent:0;text-transform:none;white-space:normal"/>
<path fill="#363636" d="M7.463 0A7.5 7.5 0 0 0 0 7.5 7.5 7.5 0 0 0 7.5 15a8 8 0 0 0 .5-.018V13.98a7 7 0 0 1-.5.02A6.5 6.5 0 0 1 1 7.5 6.5 6.5 0 0 1 7.5 1 6.5 6.5 0 0 1 14 7.5a6.5 6.5 0 0 1-.176 1.5h1.024A7.5 7.5 0 0 0 15 7.5 7.5 7.5 0 0 0 7.5 0z"/>
</svg>
